X:953
T:Snipe, The
C:Donald R Riddell
S:Sarah Northcott/Eilidh Steel, Edinburgh
Z:Nigel Gatherer
M:4/4
L:1/8
K:A
A>B | c2 a<g f2 e<c | B2 A<B c3 e | f3 g a2 f>e | f2 B2 B2
A>B | c2 a<g f2 e<c | B2 A<B c3 e | f3 g a>fe<f | c2 A2 A2 :|
a<g | f2 e<c e2 f<a | B2 A<B c2 a<g | f2 e<c e2 f<a | f2 B2 B2
a<g | f2 e<c e2 f<a | B2 A<B c3 e | f3 g a>fe<f | c2 A2 A2
a<g | f2 e<c e2 f<a | B2 A<B c2 a<g | f2 e<c e2 f<a | f2 B2 B2
A>B | c2 a<g f2 e<c | B2 A<B c3 e | f3 g a>fe<f | c2 A2 A2 ||
<end>
<start>
